X: 1
T: What Child Is This?
T: Greensleeves
O: trad England
M: 6/8
L: 1/8
K: Gm
A \
| "Gm"B2c d>ed | "F"c2A F>GA | "Eb"B2G "(Cm)"G>^FG | "D7"A3 D2A \
| "Gm"B2c d>ed | "F"c2A F>GA | "Eb"B>AG "D7"^F>=EF | "Gm"G3 G2 |]
z \
| "Bb"f3  f>ed | "F"c2A F>GA | "Eb"B2G  "(Cm)"G>^FG | "D7"A2^F D3 \
| "Bb"f3  f>ed | "F"c2A F>GA | "Eb"B>AG  "D7"^F>=EF | "Gm"G3   G2 |]
